X:1
T:Title
L:1/8
Q:1/4=120
M:2/2
K:C
V:1 treble nm="Grand Piano"
V:1
 z2 z C- C C2 D | EFEF G2 FE- | E3 G- G G2 B | A4 AGFE | F3 F- F D2 F | E8- | E3 C- C C2 D | %7
 EFEF G2 FE- | E3 G- G G2 B | A4 GAGA | F3 F- F D2 F | E8- | E3 E- EECD | C2 CF- FFDE | %14
 D2 DB- B ^G2 B | B8 | z2 z c- c c2 B | B4 A4- | A3 A- A A2 A | A3 G F4 | F3 D- D E2 F | %21
 GAAG GF G2 | F E3- E4- | E3 c- c c2 B | B4 A4- | A3 A- A A2 A | A3 G F4 | F3 D- D E2 F | %28
 GAAG GF G2 | F E3- E3- E/ z/ |] %30

